!!!COM: Scriabin, Alexander
!!!OTL@@FR: Prelude
!!!OTL@@EN:
!!!OPR@@FR: 4 Preludes
!!!OPS: 48
!!!ONM: 1
!!!ODT: 1905
!!!AGN: Prelude
**kern	**kern	**dynam
*staff2	*staff1	*staff1/2
*Ipiano	*Ipiano	*
*clefF4	*clefF4	*
*k[f#c#g#d#a#e#]	*k[f#c#g#d#a#e#]	*
*F#:	*F#:	*
*M3/4	*M3/4	*
*	*^	*
*	*	*^	*
12AAAnL 12AAn	6dn	12FnL	6E-X\	.
12FFFnJ 12FFn	.	12AnJ	.	.
12r	12rc	12rEE	12r	.
=1	=1	=1	=1	=1
2BBB 2BB	12e#XL	4D#X 4An	4r	.
.	12d#X	.	.	.
.	24r	.	.	.
.	24e#Jk	.	.	.
.	4f#	4A 4d#	4r	.
*	*clefG2	*	*	*
12CCnL 12Cn	6fn	12A-XL	6G-X/	.
12AAA-XJ 12AA-X	.	12cnJ	.	.
12r	12raa	12rc	12r	.
*	*	*v	*v	*
=2	=2	=2	=2
2DDn 2Dn	12g#XL	4F#X 4B#X	.
.	12f#X	.	.
.	24r	.	.
.	24g#Jk	.	.
.	4an	4B# 4f#	.
12DDL 12D	4g#	4B# 4f#	.
12GGG#J 12GG#	.	.	.
12r	.	.	.
=3	=3	=3	=3
4CC# 4C#	12bnL	4Bn 4e#	.
.	12a#X	.	.
.	24r	.	.
.	24bJk	.	.
4GGGn 4GGn	4b 4ddn	4e#	.
4CCC# 4CC#	4b	4e#	.
=4	=4	=4	=4
*	*	*^	*
2GGGn	4ddn	2e# 2b	4r	.
.	4cc#	.	4r	.
*	*clefF4	*	*	*
12AAA#L 12AA#	6d#X	12F#L	6En\	.
12FFF#J 12FF#	.	12A#J	.	.
12r	12rc	12rEE	12r	.
*	*	*v	*v	*
=5	=5	=5	=5
2CCn 2Cn	12f#L	4En 4B-X	.
.	12en	.	.
.	24r	.	.
.	24f#Jk	.	.
*	*clefG2	*	*
.	4an	4B-X 4en	.
[8qC/	.	.	.
4C] 4B-X 4en	4a 4ddn 4een 4aan	4rc	.
*	*v	*v	*
=6	=6	=6
[8qFF#/	.	.
*	*^	*
*	*	*^	*
4FF#] 4En 4A#X	4g# 4ddn 4een 4gg#	4rc	4r	.
[8qCCn/ [8qCn	.	.	.	.
4CC] 4C] 4E 4B-X 4en	4an 4dd 4ee 4aan	4rc	4r	.
12EEnL 12E	6a	12cnL	6B-X\	.
12CCJ 12C	.	12enJ	.	.
12r	12raa	12rc	12r	.
*	*	*v	*v	*
=7	=7	=7	=7
2FF# 2F#	12b#XL	4A#X 4en	.
.	12a#X	.	.
.	24r	.	.
.	24b#Jk	.	.
.	4dd#	4e 4a#	.
[8qF#/	.	.	.
4F#] 4en 4a#	4dd# 4gg# 4aa# 4ddd#	4rc	.
*	*v	*v	*
=8	=8	=8
[8qCn/	.	.
*	*^	*
*	*	*^	*
4C] 4B-X 4en	4ddn 4aa-X 4bb-X 4dddn	4rc	4r	.
[8qFF#/ [8qF#	.	.	.	.
4FF#] 4F#] 4A# 4e 4a#	4dd#X 4gg# 4aa#X 4ddd#X	4rc	4r	.
12AA#L 12A#	6dd#	12f#L	6en\	.
12FF#J 12F#	.	12a#J	.	.
12r	12raa	12rc	12r	.
*	*	*v	*v	*
=9	=9	=9	=9
*^	*	*	*
2.F# 2.en	4rEE	[4g# [4gg#	2dd#	.
.	12FF#L 12F#	12g#L] 12gg#]	.	.
.	12BBBJ 12BB	12.f##X 12.ff##X	.	.
.	12rEE	.	.	.
.	.	24g#Jk 24gg#	.	.
.	4rEE	[4a# [4aa#	[4cc##X	.
=10	=10	=10	=10	=10
2.F#X 2.en	4rEE	8a#L] 8aa#]	4cc##]	.
.	.	8c##XJ 8cc##X	.	.
.	12FF#L 12F#	6a# 6aa#	2cc##	.
.	12BBBJ 12BB	.	.	.
.	12rEE	6f##X 6ff##X	.	.
.	4rEE	.	.	.
.	.	6g# 6gg#	.	.
=11	=11	=11	=11	=11
2.F#X 2.en	4rEE	4cc##X 4ccc##X	4gg#	.
.	12FF#L 12F#	4g# 4gg#	2a# 2cc##	.
.	12BBBJ 12BB	.	.	.
.	12rEE	.	.	.
.	4rEE	4gn 4ggn	.	.
*v	*v	*	*	*
=12	=12	=12	=12
*	*	*^	*
8.BBL 8.F# 8.d#	8.f#L 8.b 8.dd# 8.ff#	4rc	4r	.
16FF#Jk 16F#	[16d#Jk [16f# [16b [16dd#	.	.	.
4AAA# 4AA#	4d#] 4f#] 4b] 4dd#]	4rc	4r	.
12AAAnL 12AAn	6ddn	12fnL	6e-X\	.
12FFFnJ 12FFn	.	12anJ	.	.
12r	12raa	12rc	12r	.
=13	=13	=13	=13	=13
4BB 4B	12ee#XL	4d#X 4an	4r	.
.	12dd#X	.	.	.
.	24r	.	.	.
.	24ee#Jk	.	.	.
[8qBBB/ [8qBB	.	.	.	.
4BBB] 4BB] 4D# 4An 4d#	4ff#	4a 4dd#	4r	.
12CCnL 12Cn	6ffn	12a-XL	6g-X\	.
12AAA-XJ 12AA-X	.	12ccnJ	.	.
12r	12raa	12rc	12r	.
*	*	*v	*v	*
=14	=14	=14	=14
4Dn 4dn	12gg#XL	4f#X 4b#X	.
.	12ff#X	.	.
.	24r	.	.
.	24gg#Jk	.	.
[8qDDn/ [8qD	.	.	.
4DD] 4D] 4F# 4B#X 4f#	4aan	4b# 4ff#	.
12DDL 12D	4gg#	4f# 4b# 4ff#	.
12GGG#J 12GG#	.	.	.
12r	.	.	.
=15	=15	=15	=15
4C# 4c#	12bbnL	4bn 4ee#	.
.	12aa#X	.	.
.	24r	.	.
.	24bbJk	.	.
[8qGGn/ [8qGn	.	.	.
4GG] 4E# 4G] 4B 4e#	4dddn	4b 4ee# 4bb	.
[8qCC#/ [8qC#	.	.	.
4CC#] 4C#] 4E# 4B 4e#	4bb	4b 4ee#	.
=16	=16	=16	=16
[8qGGGn/ [8qGGn	.	.	.
4GGG] 4GG] 4E# 4B 4e#	4dddn	4b 4ee# 4bb	.
4r	4raa	4rc	.
4r	4raa	4rc	.
*	*v	*v	*
=17	=17	=17
2.r	2.r	.
=18	=18	=18
[8qCC#/ [8qC#	.	.
4CC#] 4C#] 4E# 4B 4e#	4b 4ee# 4bb 4ccc#	.
4r	4r	.
4r	4r	.
=19	=19	=19
2.r	2.r	.
=20	=20	=20
16qqCC#/LL 16qqC#	.	.
[16qqFFF#/JJ [16qqFF#	.	.
4FFF#] 4FF#] 4C# 4A# 4f#	4a# 4cc# 4ff# 4aa# 4ccc# 4aaa#	.
4r	4r	.
4r	4r	.
==	==	==
*-	*-	*-
!!!system-decoration: {(*)}
!!!ENC: Bryan Jacob Bell
!!!END: November 2021 to April 2022
!!!PED: Günter Philipp
!!!PTL: Ausgewählte Klavierwerke (Edition Peters)
